X: 11192
Q: "Moderate."
M: C
L: 1/8
K: G
{c}B2(AG) (AB)(cB) | A4 z2D2 |\
(EG)(FA) G2Ac | (Bd)(ge) {d}^c2(BA) |\
(df)(eg) (fe)(d^c) | {cd/e/}d4 z2B2 |\
(Ad)(BG) (FD)(E>F) | D4 z2z |]
d3=f (ec)(BA) | (dc)(BA) {A}^G3^F/E/ |\
(Ac)(Bd) (cB)(A^G) | {G2}A4 z2zA |\
c2 (e/d/c/B/) c2zB | (3(ABc) (3(BAG) {G}HF2zc |\
{c}B2(AG) {B}A2(GF) | (G>BA>c B3c) |\
(Be)(dc) (BA)(GF) | G4 z2z |]


